X:1
T:Tant qu'en amour
T:Tant qu'en amour
T:Thomas Crecquillon
C:Thomas Crecquillon
%%score [ 1 2 [ 3 4 ] ]
L:1/8
Q:1/4=90
M:2/2
K:C
V:1 treble nm="Superius" snm="S"
V:2 treble nm="Altus" snm="A"
V:3 treble-8 nm="Tenor 1" snm="T 1"
V:4 treble-8 nm="Tenor 2" snm="T 2"
V:1
 G8- | G8 | c6 c2 | BA GF E2 G2 | c2 A2 d3 c | BA GF ED cB | AG G4 F2 | G2 z G AG AB | %8
w: Tant|_|qu'en a-|mours _ _ _ _ tu|se- ra ma mais-|tres- * * * * * * *||se et que _ _ _|
 c2 c2 B2 B2 | c3 c B2 c2 | G4 z4 | z4 z2 B2 | c3 c B2 A2 | G2 G2 FEDC | D4 C2 G2 | A6 A2 | %16
w: _ mon cueur soubz|ton po- voir se-|ra,|et|que mon cueur soubz|ton po- voir _ _ _|se- ra, il|lan- gui-|
 G2 G2 A2 c2 | BG AB cB AG | FEDE FG A2- | A2 G4 F2 | G4 z4 |: G8 | c6 c2 | BA GF E2 G2 | %24
w: ra et pour de-|vis _ _ _ _ _ _ _|_ _ _ _ _ _ _|* * au-|ra,|ja-|mais joy-|eulx _ _ _ _ mais|
 c2 A2 d3 c | BA GF ED cB | AG G4 F2 |1 G4 z4 :|2 AG G4 F2 || G8 |] %30
w: tous- jours en _|_ _ _ _ _ _ _ _|tris- * tes- *|se,|tris- * tes- *|se.|
V:2
 D4 D2 E2 | DCB,A, G,2 GF | ED G4 F2 | G2 G4 E2 | A3 G FE D2 | G6 F2- | FEDC D4- | D2 D2 F4 | %8
w: Tant qu'en a-|mours _ _ _ _ _ _|_ _ _ _|* tu se-|ra _ _ _ ma|mais- tres-|* * * * se|_ et que|
 G4 G2 G2 | A3 A G2 F2 | E4 z4 | z4 z2 G2 | A2 G4 F2 | E2 D3 C C2- | C2 B,2 C4 | z2 C2 C2 D2 | %16
w: mon cueur soubz|ton po- voir se-|ra,|et|que mon cueur|soubz ton po- voir|_ se- ra,|il lan- gui-|
 E2 E2 F2 E2 | G2 F2 E2 F2 | F2 F2 F3 E | D2 C2 D4 | D4 D2 E2 |: DCB,A, G,2 GF | ED G4 F2 | %23
w: ra et pour de-|vis _ _ au-|ra, et pour de-|vis au- ra,|ja- mais joy-|eulx _ _ _ _ _ _|_ _ _ _|
 G2 G4 E2 | A3 G FE D2 | G6 F2- | FEDC D4 |1 D4 D2 E2 :|2 FEDC D4 || D8 |] %30
w: * mais tous-|jours en tris- * *|tes- *|* * * * se,|ja- mais joy-|(tes)- * * * *|se.|
V:3
 G4 B2 c2 | B3 c d2 e2 | c2 e4 dc | d4 z2 c2- | c2 f2 d2 g2- | gfed c4- | c2 B2 A4 | G2 B2 d2 c2 | %8
w: Tant qu'en a-|mours _ _ _|_ _ _ _|* tu|_ se- ra ma|_ _ _ _ mais-|* * tres-|se et que mon|
 e4 d4 | z8 | z2 G2 c3 c | B2 c2 G2 e2 | e2 e2 d2 c2 | B4 z4 | z2 G4 c2- | cB AG A2 A2 | %16
w: cueur _||soubz ton po-|voir se- ra, soubz|ton po- voir se-|ra,|il lan-|* * * * * gui-|
 B2 c2 c2 c2 | d2 d2 c4 | d4 d2 c2 |"^b" B2 AG A4 | G2 G2 B2 c2 |: B3 c d2 e2 | c2 e4 dc | %23
w: ra et pour de-|vis au- ra,|et pour de-|vis _ _ au-|ra, ja- mais joy-|eulx _ _ _|_ _ _ _|
 d4 z2 c2- | c2 f2 d2 g2- | gfed c4- |"^b" c2 B2 A4 |1 G2 G2 B2 c2 :|2"^b" c2 B2 A4 || G8 |] %30
w: * mais|_ tous- jours en|_ _ _ _ _|* tris- tes-|se, ja- mais joy-|(en) tris- tes-|se.|
V:4
 G4 G2 C2 | G3 A B2 c2- |"^#" cB AG A4 | G2 G2 c4 | A2 d3 c BA | G2 c3 B AG | F2 G2 D4 | %7
w: Tant qu'en a-|mours _ _ _|_ _ _ _ _|* tu se-|ra ma _ _ _|_ mais- * * *|tres- * se|
 z2 G2 D2 F2 | CDEF G4 | z8 | z2 E2 A3 A | G2 F2 E2 E2 | A2 c2 G2 A2 | E2 G2 D2 E2 | F2 G2 C2 C2 | %15
w: et que mon|cueur _ _ _ _||soubz ton po-|voir se- ra, soubz|ton po- voir se-|ra, soubz ton po-|voir se- ra, il|
 F6 F2 | E2 DC F2 A2 | G2 D2 A4 | _B4 B2 F2 |"^b" G2 E2 D4 | z2 G2 G2 C2 |: G3 A B2 c2- | %22
w: lan- gui-|ra et _ pour de-|vis au- ra,|et pour de-|vis au- ra,|ja- mais joy-|eulx _ _ _|
"^#" cB AG A4 | G2 G2 c4 |"^#" A2 d3 c BA | G2 c3 B AG | F2 G2 D4 |1 z2 G2 G2 C2 :|2 F2 G2 D4 || %29
w: _ _ _ _ _|* mais tous-|jours en _ _ _|_ tris- * * *|tes- * se,|ja- mais joy-|tes- * *|
 G8 |] %30
w: se.|

